X:441
T: Lovat Scouts, The
M: 2/4
L: 1/8
R: polka
K: A
|: A/<A/ |\
"A"A.c. e.A/<A/ |"D" df ag/f/ |"A" e>c Ac |"E" B2 BA/<A/ |
"A"A.c. e.A/<A/ |"D" df ag/f/ |"A" e>c "E"dB |"A" A2 A :|
e/<e/ |\
"A"aA ce |"D" fd df |"A" e>c Ac |"E" B2 Be/<e/ |
"A"aA ce |"D" fa df |"A" e>c "E"dB |"A" A2 Ae/<e/ |
"A"aA ce |"D" fa df |"A" e>c Ac |"E" B2 Be/c/ |
"A"A/B/c/d/ ec/A/ |"D" d/.e/.f/.g/. ag/f/ |"A" e>c "E"dB |"A" A2 A ||
K: Dmaj
|: F/E/ |\
"D"DF AD |"G" GB d>B |"D" AF FE/D/ |"A" FE EF/E/ |
"D"DF AD |"G" GB dc/B/ |"D" Ad/A/ "A"FA/F/ |"A" E2 "D"D- :|
D |\
dd/e/ dA | BG B/dB/ | AF FE/D/ | FE EF/A/ |
dd/e/ dA | BG B/dB/ | AF GF/E/ | D2 D2 |
dd/e/ dA | BG B/dB/ | AF FE/D/ | FE EF/A/ |
DF AD | GB dc/B/ | Ad/A/ FA/F/ | ED D ||
K: Gmaj
|: d |\
GB dG | ce g>e | d>B GB | A2 d/c/B/A/ |
GB dG | ce gf/e/ | d>B c/B/A | G2 G :|
(3d/e/f/ |\
gG Bd | eg ce | d>g GB | A2 A (3d/e/f/ |
gG Bd | ec ce | d>B cA | G2 G (3d/e/f/ |
gG Bd | eg ce | dg Bg | A2 d/c/B/A/ |
G>B dG | ce gf/e/ | d>B cA | G3 ||
K: Dmaj
|: D/D/ |\
DF AD/D/ | GB dc/B/ | A>F DF | E3 D/D/ |
DF AD/D/ | GB dc/B/ | A>F G/F/E | D3 :|
A/A/ |\
dD FA | BG GB | A>F DF | E3 A/A/ |
dD FA | BG GB | A>F GE | D2 DA/A/ |
dD FA | BG GB | A>F dF | E3 A/F/ |
D/E/F/G/ AF/D/ | G/A/B/c/ dc/B/ | A>F GE | D3 |]
